packages/heroicons/src/interstate/outline/arrow-path.svg

<svg width="16" height="17" viewBox="0 0 16 17" fill="none" xmlns="http://www.w3.org/2000/svg">
<g clip-path="url(#clip0_1243_4876)">
<path d="M11.2033 6.69699H15.1787V6.69557M0.821045 14.8953V10.9199M0.821045 10.9199L4.79651 10.9199M0.821045 10.9199L3.35388 13.4543C4.1426 14.2445 5.14355 14.844 6.29953 15.1538C9.80397 16.0928 13.4061 14.0131 14.3451 10.5087M1.65441 7.1082C2.59343 3.60376 6.19556 1.52407 9.7 2.46308C10.856 2.77283 11.8569 3.37235 12.6457 4.16255L15.1787 6.69557M15.1787 2.72155V6.69557" stroke="black" stroke-width="1.5" stroke-linecap="round" stroke-linejoin="round"/>
</g>
<defs>
<clipPath id="clip0_1243_4876">
<rect width="16" height="16" fill="white" transform="translate(0 0.808411)"/>
</clipPath>
</defs>
</svg>

<svg viewBox="0 0 16 17">
  <g clip-path="url(#a)">
    <path stroke="currentColor" stroke-linecap="round" stroke-linejoin="round" stroke-width="1.5" d="M11.203 6.683h3.976V6.68M.82 14.881v-3.975m0 0h3.976m-3.976 0 2.533 2.534a6.57 6.57 0 0 0 10.991-2.946m-12.69-3.4a6.57 6.57 0 0 1 10.99-2.946l2.534 2.533m0-3.974v3.974"/>
  </g>
  <defs>
    <clipPath id="a">
      <path d="M0 0h16v16H0z" transform="translate(0 .794)"/>
    </clipPath>
  </defs>
</svg>
